exports/number-with-developmental-intellectual-disability_v1_850x600.svg

<svg xmlns="http://www.w3.org/2000/svg" version="1.1" style="background-color:#fff;-webkit-font-smoothing:antialiased" width="850" height="600" font-family="'Helvetica Neue',Helvetica,Arial,sans-serif" font-size="18" text-rendering="optimizeLegibility"><g class="ChartTab"><g class="HeaderView"><g opacity=".8" transform="matrix(.27 0 0 .27 778 15)"><a xmlns:xlink="http://www.w3.org/1999/xlink" xlink:href="https://ourworldindata.org" target="_blank"><g><path fill="#1B2543" d="M0 0h211.2v130.1H0z"/><path fill="#E63912" d="M0 112.2h211.2v17.9H0z"/><g><path fill="none" d="M1.2 12.3h210.2v99.2H1.2z"/><path fill="#FFF" d="M37.8 32.2c0 12.7-7.7 19.4-17.1 19.4-9.7 0-16.6-7.5-16.6-18.7 0-11.7 7.3-19.3 17.1-19.3 10.1.1 16.6 7.7 16.6 18.6zm-28.6.6c0 7.9 4.3 14.9 11.8 14.9 7.5 0 11.8-6.9 11.8-15.3 0-7.3-3.8-14.9-11.8-14.9-7.9 0-11.8 7.3-11.8 15.3zM62.7 43.8c0 2.7.1 5.1.2 7.2h-4.3l-.3-4.3h-.1c-1.3 2.1-4 4.9-8.8 4.9-4.2 0-9.1-2.3-9.1-11.6V24.6h4.8v14.6c0 5 1.5 8.4 5.9 8.4 3.2 0 5.5-2.2 6.3-4.4.3-.7.4-1.6.4-2.5V24.6h4.8v19.2zM67.3 32.8c0-3.1-.1-5.8-.2-8.2h4.2l.2 5.2h.2c1.2-3.5 4.1-5.8 7.3-5.8.5 0 .9.1 1.4.2v4.5c-.5-.1-1-.2-1.6-.2-3.4 0-5.8 2.6-6.5 6.2-.1.7-.2 1.4-.2 2.2V51h-4.8V32.8zM95.4 51L86 14.2h5l4.4 18.6c1.1 4.6 2.1 9.2 2.7 12.7h.1c.6-3.7 1.8-8 3-12.8l4.9-18.5h5l4.5 18.7c1 4.4 2 8.7 2.6 12.6h.1c.8-4 1.8-8.1 3-12.7l4.9-18.5h4.9L120.6 51h-5L111 31.9c-1.1-4.7-1.9-8.3-2.4-12h-.1c-.7 3.7-1.5 7.3-2.8 12L100.4 51h-5zM154.9 37.6c0 9.8-6.8 14-13.2 14-7.2 0-12.7-5.2-12.7-13.6 0-8.8 5.8-14 13.1-14 7.7 0 12.8 5.5 12.8 13.6zm-21 .3c0 5.8 3.3 10.1 8 10.1 4.6 0 8-4.3 8-10.3 0-4.5-2.2-10.1-7.9-10.1s-8.1 5.2-8.1 10.3zM158.2 32.8c0-3.1-.1-5.8-.2-8.2h4.2l.2 5.2h.2c1.2-3.5 4.1-5.8 7.3-5.8.5 0 .9.1 1.4.2v4.5c-.5-.1-1-.2-1.6-.2-3.4 0-5.8 2.6-6.5 6.2-.1.7-.2 1.4-.2 2.2V51h-4.8V32.8zM173.5 12.3h4.8V51h-4.8V12.3zM206.5 12.3v31.9c0 2.3.1 5 .2 6.8h-4.3l-.2-4.6h-.2c-1.5 2.9-4.7 5.2-9 5.2-6.4 0-11.3-5.4-11.3-13.4-.1-8.8 5.4-14.2 11.9-14.2 4 0 6.8 1.9 8 4h.1V12.3h4.8zm-4.8 23.1c0-.6-.1-1.4-.2-2a7 7 0 00-6.9-5.6c-5 0-7.9 4.4-7.9 10.2 0 5.3 2.6 9.8 7.8 9.8 3.2 0 6.2-2.1 7.1-5.7.2-.7.2-1.3.2-2.1v-4.6zM42.8 64c.1 1.6-1.1 2.9-3.1 2.9-1.7 0-2.9-1.3-2.9-2.9 0-1.7 1.3-3 3-3 1.9 0 3 1.3 3 3zm-5.4 33.8V71.4h4.8v26.4h-4.8zM47.5 78.6c0-2.7-.1-5-.2-7.1h4.3l.3 4.4h.1c1.3-2.5 4.4-5 8.8-5 3.7 0 9.4 2.2 9.4 11.2v15.8h-4.8V82.6c0-4.3-1.6-7.8-6.1-7.8-3.2 0-5.6 2.2-6.5 4.9-.2.6-.3 1.4-.3 2.2v15.9h-4.8V78.6zM84 61.6c2.9-.4 6.3-.8 10.1-.8 6.8 0 11.7 1.6 14.9 4.6 3.3 3 5.2 7.3 5.2 13.2 0 6-1.9 10.9-5.3 14.3-3.4 3.4-9.1 5.3-16.3 5.3-3.4 0-6.2-.2-8.6-.4V61.6zm4.8 32.5c1.2.2 3 .3 4.8.3 10.2 0 15.7-5.7 15.7-15.6.1-8.7-4.9-14.2-14.9-14.2-2.5 0-4.3.2-5.6.5v29zM132.1 97.8l-.4-3.3h-.2a9.79 9.79 0 01-8.1 3.9c-5.4 0-8.1-3.8-8.1-7.6 0-6.4 5.7-9.9 15.9-9.8v-.5c0-2.2-.6-6.1-6-6.1-2.5 0-5 .8-6.9 2l-1.1-3.2c2.2-1.4 5.4-2.3 8.7-2.3 8.1 0 10.1 5.5 10.1 10.8v9.9c0 2.3.1 4.5.4 6.3h-4.3zm-.7-13.4c-5.3-.1-11.2.8-11.2 5.9 0 3.1 2.1 4.6 4.5 4.6 3.4 0 5.6-2.2 6.4-4.4.2-.5.3-1 .3-1.5v-4.6zM146.6 63.9v7.6h6.9v3.7h-6.9v14.2c0 3.3.9 5.1 3.6 5.1 1.3 0 2.2-.2 2.8-.3l.2 3.6c-.9.4-2.4.7-4.3.7-2.2 0-4-.7-5.2-2-1.4-1.4-1.9-3.8-1.9-6.9V75.1h-4.1v-3.7h4.1v-6.3l4.8-1.2zM171.4 97.8l-.4-3.3h-.2a9.79 9.79 0 01-8.1 3.9c-5.4 0-8.1-3.8-8.1-7.6 0-6.4 5.7-9.9 15.9-9.8v-.5c0-2.2-.6-6.1-6-6.1-2.5 0-5 .8-6.9 2l-1.1-3.2c2.2-1.4 5.4-2.3 8.7-2.3 8.1 0 10.1 5.5 10.1 10.8v9.9c0 2.3.1 4.5.4 6.3h-4.3zm-.7-13.4c-5.3-.1-11.2.8-11.2 5.9 0 3.1 2.1 4.6 4.5 4.6 3.4 0 5.6-2.2 6.4-4.4.2-.5.3-1 .3-1.5v-4.6z"/></g></g></a></g><a href="https://ourworldindata.org/grapher/number-with-developmental-intellectual-disability" target="_blank"><text font-size="25.2" x="15" y="35.2" fill="#555"><tspan x="15" y="35.16">Number of people with developmental intellectual disability, World</tspan></text></a><text font-size="14.4" x="15" y="53.7" fill="#666"><tspan x="15" y="53.72">Number of people with &apos;idiopathic developmental intellectual disability&apos;, differentiated by sex. This is a category of</tspan><tspan x="15" y="69.56">disorders defined by delayed or impaired speech, language, motor condition, and visuo-spatial skills. Prevalence has</tspan><tspan x="15" y="85.4">been age-standardized to compare between countries and with time.</tspan></text></g><g class="StackedArea"><defs><clipPath id="a"><path d="M97.6 0h820v897.8h-820z"/></clipPath></defs><g class="AxisBoxView"><g class="HorizontalAxis" fill="#666" text-anchor="middle" font-size="16.2"><text x="97.6" y="556.5">1990</text><text x="226.3" y="556.5">1995</text><text x="355" y="556.5">2000</text><text x="483.7" y="556.5">2005</text><text x="612.4" y="556.5">2010</text><text x="766.9" y="556.5">2016</text></g><g class="VerticalAxis" fill="#666" dominant-baseline="middle" text-anchor="end" font-size="16.2"><text x="92.6" y="535.3">0</text><text x="92.6" y="460.8">20 million</text><text x="92.6" y="386.3">40 million</text><text x="92.6" y="311.8">60 million</text><text x="92.6" y="237.2">80 million</text><text x="92.6" y="162.7">100 million</text></g><g class="AxisGridLines"><path stroke="#ccc" d="M97.6 535.3h669.3"/><path stroke="#ddd" stroke-dasharray="3,2" d="M97.6 460.8h669.3M97.6 386.3h669.3M97.6 311.8h669.3M97.6 237.2h669.3M97.6 162.7h669.3"/></g><g class="AxisGridLines" stroke="#ddd" stroke-dasharray="3,2"><path d="M97.6 535.3V107.6M226.3 535.3V107.6M355 535.3V107.6M483.7 535.3V107.6M612.4 535.3V107.6M741.2 535.3V107.6"/></g></g><g clip-path="url(#a)"><g class="HeightedLegend clickable"><g class="legendMark"><path fill="#ed6c2d" d="M771.9 199.95h10v2.5h-10z"/><text font-size="14.4" x="786.9" y="205.5" fill="#333"><tspan x="786.9" y="205.52">Female</tspan></text></g><g class="legendMark"><path fill="#3360a9" d="M771.9 413.85h10v2.5h-10z"/><text font-size="14.4" x="786.9" y="419.4" fill="#333"><tspan x="786.9" y="419.42">Male</tspan></text></g></g><g class="Areas"><path d="M97.6 348.3l25.7-3 25.8-3.4 25.7-3.4 25.8-3.5 25.7-3.6 25.8-3.1 25.7-3.1 25.7-2.9 25.8-3 25.7-3.1 25.8-2.2 25.7-2.2 25.8-2.3 25.7-2.4 25.7-2.3 25.8-.9 25.7-.9 25.8-1 25.7-1.1 25.7-1.2 25.8-.7 25.7-.9 25.8-.8 25.7-.8 25.8-.8 25.7-.8v240.4H97.6" fill="#3360a9" fill-opacity=".7" class="World_0-area"/><path d="M97.6 203.3l25.7-5.4 25.8-5.9 25.7-6.2 25.8-6.3 25.7-6.4 25.8-5.6 25.7-5.4 25.7-5.4 25.8-5.3 25.7-5.6 25.8-3.9 25.7-4.1 25.8-4.2 25.7-4.2 25.7-4.2 25.8-1.5 25.7-1.5 25.8-1.7 25.7-1.8 25.7-1.9 25.8-1.4 25.7-1.6 25.8-1.5 25.7-1.6 25.8-1.6 25.7-1.5v187.3l-25.7.8-25.8.8-25.7.8-25.8.8-25.7.9-25.8.7-25.7 1.2L561 302l-25.8 1-25.7.9-25.8.9-25.7 2.3-25.7 2.4-25.8 2.3-25.7 2.2-25.8 2.2-25.7 3.1-25.8 3-25.7 2.9-25.7 3.1-25.8 3.1-25.7 3.6-25.8 3.5-25.7 3.4-25.8 3.4-25.7 3" fill="#ed6c2d" fill-opacity=".7" class="World_1-area"/><path stroke-linecap="round" d="M97.6 348.3l25.7-3 25.8-3.4 25.7-3.4 25.8-3.5 25.7-3.6 25.8-3.1 25.7-3.1 25.7-2.9 25.8-3 25.7-3.1 25.8-2.2 25.7-2.2 25.8-2.3 25.7-2.4 25.7-2.3 25.8-.9 25.7-.9 25.8-1 25.7-1.1 25.7-1.2 25.8-.7 25.7-.9 25.8-.8 25.7-.8 25.8-.8 25.7-.8" stroke="#2B508D" stroke-opacity=".7" stroke-width=".5" fill="none" class="World_0-border"/><path stroke-linecap="round" d="M97.6 203.3l25.7-5.4 25.8-5.9 25.7-6.2 25.8-6.3 25.7-6.4 25.8-5.6 25.7-5.4 25.7-5.4 25.8-5.3 25.7-5.6 25.8-3.9 25.7-4.1 25.8-4.2 25.7-4.2 25.7-4.2 25.8-1.5 25.7-1.5 25.8-1.7 25.7-1.8 25.7-1.9 25.8-1.4 25.7-1.6 25.8-1.5 25.7-1.6 25.8-1.6 25.7-1.5" stroke="#C65A26" stroke-opacity=".7" stroke-width=".5" fill="none" class="World_1-border"/></g></g></g><g class="SourcesFooter" fill="#777"><g class="clickable" fill="#777"><text font-size="12.6" x="15" y="581.6"><tspan x="15" y="581.58">Source: IHME, Global Burden of Disease</tspan></text></g><text font-size="12.6" x="649" y="581.6"><tspan x="649.02" y="581.58"><a target="_blank" href="https://ourworldindata.org" fill="#777">OurWorldInData.org</a> • <a href="http://creativecommons.org/licenses/by-sa/4.0/deed.en_US" target="_blank" fill="#777">CC BY-SA</a></tspan></text></g></g></svg>

<svg xmlns="http://www.w3.org/2000/svg" version="1.1" style="font-family: 'Helvetica Neue', Helvetica, Arial, sans-serif; font-size: 18px; background-color: white; text-rendering: optimizeLegibility; -webkit-font-smoothing: antialiased;" width="850" height="600"><g class="ChartTab"><g class="HeaderView"><g opacity="0.8" transform="translate(778, 15) scale(0.27)"><a xmlns:xlink="http://www.w3.org/1999/xlink" xlink:href="https://ourworldindata.org" target="_blank"><g><rect x="0" y="0" fill="#1B2543" width="211.2" height="130.1"/><rect x="0" y="112.2" fill="#E63912" width="211.2" height="17.9"/><g><rect x="1.2" y="12.3" fill="none" width="210.2" height="99.2"/><path fill="#FFFFFF" d="M37.8,32.2c0,12.7-7.7,19.4-17.1,19.4c-9.7,0-16.6-7.5-16.6-18.7c0-11.7,7.3-19.3,17.1-19.3 C31.3,13.7,37.8,21.3,37.8,32.2z M9.2,32.8c0,7.9,4.3,14.9,11.8,14.9c7.5,0,11.8-6.9,11.8-15.3c0-7.3-3.8-14.9-11.8-14.9 C13.1,17.5,9.2,24.8,9.2,32.8z"/><path fill="#FFFFFF" d="M62.7,43.8c0,2.7,0.1,5.1,0.2,7.2h-4.3l-0.3-4.3h-0.1c-1.3,2.1-4,4.9-8.8,4.9c-4.2,0-9.1-2.3-9.1-11.6 V24.6h4.8v14.6c0,5,1.5,8.4,5.9,8.4c3.2,0,5.5-2.2,6.3-4.4c0.3-0.7,0.4-1.6,0.4-2.5V24.6h4.8V43.8z"/><path fill="#FFFFFF" d="M67.3,32.8c0-3.1-0.1-5.8-0.2-8.2h4.2l0.2,5.2h0.2c1.2-3.5,4.1-5.8,7.3-5.8c0.5,0,0.9,0.1,1.4,0.2v4.5 c-0.5-0.1-1-0.2-1.6-0.2c-3.4,0-5.8,2.6-6.5,6.2c-0.1,0.7-0.2,1.4-0.2,2.2V51h-4.8V32.8z"/><path fill="#FFFFFF" d="M95.4,51l-9.4-36.8h5l4.4,18.6c1.1,4.6,2.1,9.2,2.7,12.7h0.1c0.6-3.7,1.8-8,3-12.8l4.9-18.5h5l4.5,18.7 c1,4.4,2,8.7,2.6,12.6h0.1c0.8-4,1.8-8.1,3-12.7l4.9-18.5h4.9L120.6,51h-5L111,31.9c-1.1-4.7-1.9-8.3-2.4-12h-0.1 c-0.7,3.7-1.5,7.3-2.8,12L100.4,51H95.4z"/><path fill="#FFFFFF" d="M154.9,37.6c0,9.8-6.8,14-13.2,14c-7.2,0-12.7-5.2-12.7-13.6c0-8.8,5.8-14,13.1-14 C149.8,24,154.9,29.5,154.9,37.6z M133.9,37.9c0,5.8,3.3,10.1,8,10.1c4.6,0,8-4.3,8-10.3c0-4.5-2.2-10.1-7.9-10.1 C136.3,27.6,133.9,32.8,133.9,37.9z"/><path fill="#FFFFFF" d="M158.2,32.8c0-3.1-0.1-5.8-0.2-8.2h4.2l0.2,5.2h0.2c1.2-3.5,4.1-5.8,7.3-5.8c0.5,0,0.9,0.1,1.4,0.2v4.5 c-0.5-0.1-1-0.2-1.6-0.2c-3.4,0-5.8,2.6-6.5,6.2c-0.1,0.7-0.2,1.4-0.2,2.2V51h-4.8V32.8z"/><path fill="#FFFFFF" d="M173.5,12.3h4.8V51h-4.8V12.3z"/><path fill="#FFFFFF" d="M206.5,12.3v31.9c0,2.3,0.1,5,0.2,6.8h-4.3l-0.2-4.6H202c-1.5,2.9-4.7,5.2-9,5.2 c-6.4,0-11.3-5.4-11.3-13.4c-0.1-8.8,5.4-14.2,11.9-14.2c4,0,6.8,1.9,8,4h0.1V12.3H206.5z M201.7,35.4c0-0.6-0.1-1.4-0.2-2 c-0.7-3.1-3.3-5.6-6.9-5.6c-5,0-7.9,4.4-7.9,10.2c0,5.3,2.6,9.8,7.8,9.8c3.2,0,6.2-2.1,7.1-5.7c0.2-0.7,0.2-1.3,0.2-2.1V35.4z"/><path fill="#FFFFFF" d="M42.8,64c0.1,1.6-1.1,2.9-3.1,2.9c-1.7,0-2.9-1.3-2.9-2.9c0-1.7,1.3-3,3-3C41.7,61,42.8,62.3,42.8,64z M37.4,97.8V71.4h4.8v26.4H37.4z"/><path fill="#FFFFFF" d="M47.5,78.6c0-2.7-0.1-5-0.2-7.1h4.3l0.3,4.4h0.1c1.3-2.5,4.4-5,8.8-5c3.7,0,9.4,2.2,9.4,11.2v15.8h-4.8 V82.6c0-4.3-1.6-7.8-6.1-7.8c-3.2,0-5.6,2.2-6.5,4.9c-0.2,0.6-0.3,1.4-0.3,2.2v15.9h-4.8V78.6z"/><path fill="#FFFFFF" d="M84,61.6c2.9-0.4,6.3-0.8,10.1-0.8c6.8,0,11.7,1.6,14.9,4.6c3.3,3,5.2,7.3,5.2,13.2c0,6-1.9,10.9-5.3,14.3 c-3.4,3.4-9.1,5.3-16.3,5.3c-3.4,0-6.2-0.2-8.6-0.4V61.6z M88.8,94.1c1.2,0.2,3,0.3,4.8,0.3c10.2,0,15.7-5.7,15.7-15.6 c0.1-8.7-4.9-14.2-14.9-14.2c-2.5,0-4.3,0.2-5.6,0.5V94.1z"/><path fill="#FFFFFF" d="M132.1,97.8l-0.4-3.3h-0.2c-1.5,2.1-4.3,3.9-8.1,3.9c-5.4,0-8.1-3.8-8.1-7.6c0-6.4,5.7-9.9,15.9-9.8v-0.5 c0-2.2-0.6-6.1-6-6.1c-2.5,0-5,0.8-6.9,2l-1.1-3.2c2.2-1.4,5.4-2.3,8.7-2.3c8.1,0,10.1,5.5,10.1,10.8v9.9c0,2.3,0.1,4.5,0.4,6.3 H132.1z M131.4,84.4c-5.3-0.1-11.2,0.8-11.2,5.9c0,3.1,2.1,4.6,4.5,4.6c3.4,0,5.6-2.2,6.4-4.4c0.2-0.5,0.3-1,0.3-1.5V84.4z"/><path fill="#FFFFFF" d="M146.6,63.9v7.6h6.9v3.7h-6.9v14.2c0,3.3,0.9,5.1,3.6,5.1c1.3,0,2.2-0.2,2.8-0.3l0.2,3.6 c-0.9,0.4-2.4,0.7-4.3,0.7c-2.2,0-4-0.7-5.2-2c-1.4-1.4-1.9-3.8-1.9-6.9V75.1h-4.1v-3.7h4.1v-6.3L146.6,63.9z"/><path fill="#FFFFFF" d="M171.4,97.8l-0.4-3.3h-0.2c-1.5,2.1-4.3,3.9-8.1,3.9c-5.4,0-8.1-3.8-8.1-7.6c0-6.4,5.7-9.9,15.9-9.8v-0.5 c0-2.2-0.6-6.1-6-6.1c-2.5,0-5,0.8-6.9,2l-1.1-3.2c2.2-1.4,5.4-2.3,8.7-2.3c8.1,0,10.1,5.5,10.1,10.8v9.9c0,2.3,0.1,4.5,0.4,6.3 H171.4z M170.7,84.4c-5.3-0.1-11.2,0.8-11.2,5.9c0,3.1,2.1,4.6,4.5,4.6c3.4,0,5.6-2.2,6.4-4.4c0.2-0.5,0.3-1,0.3-1.5V84.4z"/></g></g></a></g><a href="https://ourworldindata.org/grapher/number-with-developmental-intellectual-disability" target="_blank"><text font-size="25.20" x="15.0" y="35.2" fill="#555"><tspan x="15" y="35.160000000000004">Number of people with developmental intellectual disability, World</tspan></text></a><text font-size="14.40" x="15.0" y="53.7" fill="#666"><tspan x="15" y="53.72">Number of people with 'idiopathic developmental intellectual disability', differentiated by sex. This is a category of</tspan><tspan x="15" y="69.56">disorders defined by delayed or impaired speech, language, motor condition, and visuo-spatial skills. Prevalence has</tspan><tspan x="15" y="85.4">been age-standardized to compare between countries and with time.</tspan></text></g><g class="StackedArea"><defs><clipPath id="boundsClip-4"><rect x="97.598" y="0" width="820" height="897.8"></rect></clipPath></defs><g class="AxisBoxView"><g class="HorizontalAxis"><text x="97.6" y="556.5" fill="#666" text-anchor="middle" font-size="16.2">1990</text><text x="226.3" y="556.5" fill="#666" text-anchor="middle" font-size="16.2">1995</text><text x="355" y="556.5" fill="#666" text-anchor="middle" font-size="16.2">2000</text><text x="483.7" y="556.5" fill="#666" text-anchor="middle" font-size="16.2">2005</text><text x="612.4" y="556.5" fill="#666" text-anchor="middle" font-size="16.2">2010</text><text x="766.9" y="556.5" fill="#666" text-anchor="middle" font-size="16.2">2016</text></g><g class="VerticalAxis"><text x="92.60" y="535.3" fill="#666" dominant-baseline="middle" text-anchor="end" font-size="16.2">0</text><text x="92.60" y="460.8" fill="#666" dominant-baseline="middle" text-anchor="end" font-size="16.2">20 million</text><text x="92.60" y="386.3" fill="#666" dominant-baseline="middle" text-anchor="end" font-size="16.2">40 million</text><text x="92.60" y="311.8" fill="#666" dominant-baseline="middle" text-anchor="end" font-size="16.2">60 million</text><text x="92.60" y="237.2" fill="#666" dominant-baseline="middle" text-anchor="end" font-size="16.2">80 million</text><text x="92.60" y="162.7" fill="#666" dominant-baseline="middle" text-anchor="end" font-size="16.2">100 million</text></g><g class="AxisGridLines"><line x1="97.60" y1="535.3" x2="766.90" y2="535.3" stroke="#ccc"></line><line x1="97.60" y1="460.8" x2="766.90" y2="460.8" stroke="#ddd" stroke-dasharray="3,2"></line><line x1="97.60" y1="386.3" x2="766.90" y2="386.3" stroke="#ddd" stroke-dasharray="3,2"></line><line x1="97.60" y1="311.8" x2="766.90" y2="311.8" stroke="#ddd" stroke-dasharray="3,2"></line><line x1="97.60" y1="237.2" x2="766.90" y2="237.2" stroke="#ddd" stroke-dasharray="3,2"></line><line x1="97.60" y1="162.7" x2="766.90" y2="162.7" stroke="#ddd" stroke-dasharray="3,2"></line></g><g class="AxisGridLines"><line x1="97.6" y1="535.30" x2="97.6" y2="107.60" stroke="#ddd" stroke-dasharray="3,2"></line><line x1="226.3" y1="535.30" x2="226.3" y2="107.60" stroke="#ddd" stroke-dasharray="3,2"></line><line x1="355" y1="535.30" x2="355" y2="107.60" stroke="#ddd" stroke-dasharray="3,2"></line><line x1="483.7" y1="535.30" x2="483.7" y2="107.60" stroke="#ddd" stroke-dasharray="3,2"></line><line x1="612.4" y1="535.30" x2="612.4" y2="107.60" stroke="#ddd" stroke-dasharray="3,2"></line><line x1="741.2" y1="535.30" x2="741.2" y2="107.60" stroke="#ddd" stroke-dasharray="3,2"></line></g></g><g clip-path="url(#boundsClip-4)"><g class="HeightedLegend clickable"><g class="legendMark"><rect x="771.904" y="194" width="63.096000000000004" height="14.4" fill="#fff" opacity="0"></rect><rect x="771.904" y="199.95" width="10" height="2.5" fill="#ed6c2d"></rect><text font-size="14.40" x="786.9" y="205.5" fill="#333"><tspan x="786.904" y="205.52">Female</tspan></text></g><g class="legendMark"><rect x="771.904" y="407.90000000000003" width="46.248000000000005" height="14.4" fill="#fff" opacity="0"></rect><rect x="771.904" y="413.85" width="10" height="2.5" fill="#3360a9"></rect><text font-size="14.40" x="786.9" y="419.4" fill="#333"><tspan x="786.904" y="419.42">Male</tspan></text></g></g><g class="Areas"><rect x="97.598" y="107.60000000000001" width="669.306" height="427.69999999999993" opacity="0" fill="rgba(255,255,255,0)"></rect><path stroke-linecap="round" d="M97.6 348.3L123.3 345.3L149.1 341.9L174.8 338.5L200.6 335L226.3 331.4L252.1 328.3L277.8 325.2L303.5 322.3L329.3 319.3L355 316.2L380.8 314L406.5 311.8L432.3 309.5L458 307.1L483.7 304.8L509.5 303.9L535.2 303L561 302L586.7 300.9L612.4 299.7L638.2 299L663.9 298.1L689.7 297.3L715.4 296.5L741.2 295.7L766.9 294.9L766.904 535.3L97.598 535.3" fill="#3360a9" fill-opacity="0.7" class="World_0-area"></path><path stroke-linecap="round" d="M97.6 203.3L123.3 197.9L149.1 192L174.8 185.8L200.6 179.5L226.3 173.1L252.1 167.5L277.8 162.1L303.5 156.7L329.3 151.4L355 145.8L380.8 141.9L406.5 137.8L432.3 133.6L458 129.4L483.7 125.2L509.5 123.7L535.2 122.2L561 120.5L586.7 118.7L612.4 116.8L638.2 115.4L663.9 113.8L689.7 112.3L715.4 110.7L741.2 109.1L766.9 107.6L766.9 294.9L741.2 295.7L715.4 296.5L689.7 297.3L663.9 298.1L638.2 299L612.4 299.7L586.7 300.9L561 302L535.2 303L509.5 303.9L483.7 304.8L458 307.1L432.3 309.5L406.5 311.8L380.8 314L355 316.2L329.3 319.3L303.5 322.3L277.8 325.2L252.1 328.3L226.3 331.4L200.6 335L174.8 338.5L149.1 341.9L123.3 345.3L97.6 348.3" fill="#ed6c2d" fill-opacity="0.7" class="World_1-area"></path><path stroke-linecap="round" d="M97.6 348.3L123.3 345.3L149.1 341.9L174.8 338.5L200.6 335L226.3 331.4L252.1 328.3L277.8 325.2L303.5 322.3L329.3 319.3L355 316.2L380.8 314L406.5 311.8L432.3 309.5L458 307.1L483.7 304.8L509.5 303.9L535.2 303L561 302L586.7 300.9L612.4 299.7L638.2 299L663.9 298.1L689.7 297.3L715.4 296.5L741.2 295.7L766.9 294.9" stroke="rgb(43, 80, 141)" stroke-opacity="0.7" stroke-width="0.5" fill="none" class="World_0-border"></path><path stroke-linecap="round" d="M97.6 203.3L123.3 197.9L149.1 192L174.8 185.8L200.6 179.5L226.3 173.1L252.1 167.5L277.8 162.1L303.5 156.7L329.3 151.4L355 145.8L380.8 141.9L406.5 137.8L432.3 133.6L458 129.4L483.7 125.2L509.5 123.7L535.2 122.2L561 120.5L586.7 118.7L612.4 116.8L638.2 115.4L663.9 113.8L689.7 112.3L715.4 110.7L741.2 109.1L766.9 107.6" stroke="rgb(198, 90, 38)" stroke-opacity="0.7" stroke-width="0.5" fill="none" class="World_1-border"></path></g></g></g><g style="fill: #777;" class="SourcesFooter"><g style="fill: #777;" class="clickable"><text font-size="12.60" x="15.0" y="581.6"><tspan x="15" y="581.58">Source: IHME, Global Burden of Disease</tspan></text></g><text font-size="12.60" x="649.0" y="581.6"><tspan x="649.024" y="581.58"><a target='_blank' style='fill: #777;' href='https://ourworldindata.org'>OurWorldInData.org</a> • <a style="fill: #777;" href="http://creativecommons.org/licenses/by-sa/4.0/deed.en_US" target="_blank">CC BY-SA</a></tspan></text></g></g></svg>
